public/images/icons/icon_linkedin.svg

<svg xmlns="http://www.w3.org/2000/svg" width="24" height="24" viewBox="0 0 24 24"><path d="M4.98 3.5c0 1.381-1.11 2.5-2.48 2.5s-2.48-1.119-2.48-2.5c0-1.38 1.11-2.5 2.48-2.5s2.48 1.12 2.48 2.5zm.02 4.5h-5v16h5v-16zm7.982 0h-4.968v16h4.969v-8.399c0-4.67 6.029-5.052 6.029 0v8.399h4.988v-10.131c0-7.88-8.922-7.593-11.018-3.714v-2.155z"/></svg>

<svg xmlns="http://www.w3.org/2000/svg" width="24" height="24" viewBox="0 0 24 24">
  <path d="M5 3.5C5 4.9 3.9 6 2.5 6S0 4.9 0 3.5 1.1 1 2.5 1 5 2.1 5 3.5zM5 8H0v16h5V8zm8 0H8v16h5v-8.4c0-4.7 6-5 6 0V24h5V13.9c0-8-9-7.6-11-3.7V8z"/>
</svg>
